X:311
T:The High Cauled Cap
M:2/4
L:1/8
K:G
D|"G"G3/2A/ Bd|"C"c/B/A/G/ "G"B3/2c/|"D"BA AG/A/|BA AD|"G"G3/2A/ Bd|
"C"c/B/A/G/ "G"BA/B/|"Em"GE ED/E/|GE E:||:d|"C"eg "G"dB|"C"c/B/A/G/ "G"B3/2c/|
"D"BA AG/A/|BA Ad|"C"eg "G"dB|"C"c/B/A/G/ "G"BA/B/|"Em"GE ED/E/|GE E:|
